src/topics/icons/keen.svg

<svg height="111" preserveAspectRatio="xMidYMid" viewBox="0 0 512 111" width="512" xmlns="http://www.w3.org/2000/svg"><path d="m51.5542626 63.0389226 6.0750438 10.5201346-15.1565791 26.3093872h78.8962697l6.039703 10.4615216h-103.235232z" fill="#f35757"/><path d="m51.6077037 20.9428687 27.264431 47.36h-12.1457778l-15.159165-26.2559461-39.5360539 68.2830434h-12.031138z" fill="#49c5b1"/><path d="m115.302572 89.362101h-54.6521208l6.0802155-10.5520269h30.3131582l-39.3662491-68.3804445 6.0207407-10.4296296z" fill="#00afd7"/><path d="m212.143838 81.1640673-25.712053-31.7112458 23.879542-23.6899124c1.033481-1.0300337 1.536-2.1333333 1.536-3.3702357 0-2.504835-2.151435-4.700229-4.603691-4.700229-1.61099 0-2.696188.7645522-3.673643 1.6342627l-37.831111 38.7844309v-35.61934c0-2.6461953-2.153158-4.7993536-4.799353-4.7993536-2.551381 0-4.707125 2.1971179-4.707125 4.7993536v62.0692256c0 2.6030976 2.155744 4.8010774 4.707125 4.8010774 2.646195 0 4.799353-2.1531582 4.799353-4.8010774v-14.6178586l13.947259-13.9446734 25.076795 31.2294141c.991246 1.4161886 2.288485 2.1350573 3.856377 2.1350573 2.60396 0 4.803663-2.1988418 4.803663-4.8010775 0-1.5549629-.610262-2.5462087-1.279138-3.3978182zm54.381468-19.3603232c0-13.2559731-8.418693-26.6757172-24.508767-26.6757172-14.184297 0-25.296593 12.0164849-25.296593 27.3609697v.1982492c0 15.6013468 11.298478 27.3652795 26.280943 27.3652795 7.985993 0 14.095515-2.4444984 19.781818-7.8972122.951596-.8335084 1.476525-1.93767 1.476525-3.1107878 0-2.267798-1.8894-4.1123772-4.212363-4.1123772-1.263623 0-2.157468.6197442-2.75394 1.1145051-4.211501 3.8787879-8.69107 5.6854411-14.096377 5.6854411-8.945347 0-15.659097-6.1957172-16.958922-15.5203233h35.880511c2.429846-.0008619 4.407165-1.9790437 4.407165-4.4080269zm-24.704431-18.5492256c9.91332 0 14.366169 7.8972121 15.300526 15.616h-30.884633c1.280862-9.2444444 7.581737-15.616 15.584107-15.616zm80.565011 18.5492256c0-13.2559731-8.418694-26.6757172-24.508768-26.6757172-14.182573 0-25.293145 12.0164849-25.293145 27.3609697v.1982492c0 15.6013468 11.297616 27.3652795 26.277495 27.3652795 7.984269 0 14.093791-2.4444984 19.781818-7.8989361.950734-.8317845 1.47394-1.9359461 1.47394-3.1090639 0-2.267798-1.890263-4.1123772-4.214088-4.1123772-1.261899 0-2.155744.6197442-2.752215 1.1145051-4.211502 3.8787879-8.690209 5.6854411-14.094654 5.6854411-8.941899 0-15.655649-6.1965791-16.960646-15.5203233h35.87965c2.432431-.0008619 4.410613-1.9790437 4.410613-4.4080269zm-24.704431-18.5492256c9.909872 0 14.361858 7.8972121 15.298801 15.616h-30.883771c1.280862-9.2444444 7.581737-15.616 15.58497-15.616zm59.799703-8.1264916c-6.927515 0-12.491421 2.6953266-16.577939 8.0239192v-2.7263569c0-2.6392996-2.065239-4.7071246-4.701953-4.7071246-2.538451 0-4.604552 2.1109226-4.604552 4.7071246v44.2345589c0 2.6367139 2.065239 4.7019529 4.701953 4.7019529 2.624646 0 4.604552-2.0221414 4.604552-4.7019529v-25.8137643c0-8.8884579 5.925064-15.0962424 14.409266-15.0962424 8.279919 0 13.224081 5.4225455 13.224081 14.5032189v26.4059259c0 2.6367138 2.066963 4.7019529 4.707124 4.7019529 2.584997 0 4.609724-2.0652391 4.609724-4.7019529v-28.2755017c0-12.9120539-7.996337-21.2557576-20.372256-21.2557576zm66.103165-17.4364444c-2.549656 0-4.703677 2.1971178-4.703677 4.7993535v62.0692256c0 2.6030977 2.154021 4.8010775 4.703677 4.8010775 2.647919 0 4.802802-2.1531583 4.802802-4.8010775v-62.0692256c0-2.6461953-2.154883-4.7993535-4.802802-4.7993535zm52.478276-.6895623c-20.25934 0-36.129616 16.0435286-36.129616 36.5235286v.1973872c0 20.7127273 15.448781 36.3304512 35.933953 36.3304512 20.261926 0 36.133064-16.0435286 36.133064-36.5269764v-.1956633c0-20.7110034-15.449643-36.3287273-35.937401-36.3287273zm26.134411 36.5235286v.1973872c0 15.6297913-11.235555 27.4161347-26.134411 27.4161347-15.007461 0-26.324902-11.8716768-26.324902-27.6135219v-.1956633c0-15.6280673 11.23297-27.4126868 26.129239-27.4126868 14.764391 0 26.330074 12.1268148 26.330074 27.6083501z" fill="#546a7e"/></svg>

<?xml version="1.0" encoding="UTF-8" standalone="no"?>
<svg width="512px" height="111px" viewBox="0 0 512 111" version="1.1" xmlns="http://www.w3.org/2000/svg" xmlns:xlink="http://www.w3.org/1999/xlink" preserveAspectRatio="xMidYMid">
	<g>
		<g>
			<path d="M51.5542626,63.0389226 L57.6293064,73.5590572 L42.4727273,99.8684444 L121.368997,99.8684444 L127.4087,110.329966 L24.173468,110.329966 L51.5542626,63.0389226 Z" fill="#F35757"></path>
			<path d="M51.6077037,20.9428687 L78.8721347,68.3028687 L66.7263569,68.3028687 L51.5671919,42.0469226 L12.031138,110.329966 L0,110.329966 L51.6077037,20.9428687 Z" fill="#49C5B1"></path>
			<path d="M115.302572,89.362101 L60.6504512,89.362101 L66.7306667,78.8100741 L97.0438249,78.8100741 L57.6775758,10.4296296 L63.6983165,0 L115.302572,89.362101 Z" fill="#00AFD7"></path>
		</g>
		<path d="M212.143838,81.1640673 L186.431785,49.4528215 L210.311327,25.7629091 C211.344808,24.7328754 211.847327,23.6295758 211.847327,22.3926734 C211.847327,19.8878384 209.695892,17.6924444 207.243636,17.6924444 C205.632646,17.6924444 204.547448,18.4569966 203.569993,19.3267071 L165.738882,58.111138 L165.738882,22.491798 C165.738882,19.8456027 163.585724,17.6924444 160.939529,17.6924444 C158.388148,17.6924444 156.232404,19.8895623 156.232404,22.491798 L156.232404,84.5610236 C156.232404,87.1641212 158.388148,89.362101 160.939529,89.362101 C163.585724,89.362101 165.738882,87.2089428 165.738882,84.5610236 L165.738882,69.943165 L179.686141,55.9984916 L204.762936,87.2279057 C205.754182,88.6440943 207.051421,89.362963 208.619313,89.362963 C211.223273,89.362963 213.422976,87.1641212 213.422976,84.5618855 C213.422976,83.0069226 212.812714,82.0156768 212.143838,81.1640673 L212.143838,81.1640673 Z M266.525306,61.8037441 C266.525306,48.547771 258.106613,35.1280269 242.016539,35.1280269 C227.832242,35.1280269 216.719946,47.1445118 216.719946,62.4889966 L216.719946,62.6872458 C216.719946,78.2885926 228.018424,90.0525253 243.000889,90.0525253 C250.986882,90.0525253 257.096404,87.6080269 262.782707,82.1553131 C263.734303,81.3218047 264.259232,80.2176431 264.259232,79.0445253 C264.259232,76.7767273 262.369832,74.9321481 260.046869,74.9321481 C258.783246,74.9321481 257.889401,75.5518923 257.292929,76.0466532 C253.081428,79.9254411 248.601859,81.7320943 243.196552,81.7320943 C234.251205,81.7320943 227.537455,75.5363771 226.23763,66.211771 L262.118141,66.211771 C264.547987,66.2109091 266.525306,64.2327273 266.525306,61.8037441 L266.525306,61.8037441 Z M241.820875,43.2545185 C251.734195,43.2545185 256.187044,51.1517306 257.121401,58.8705185 L226.236768,58.8705185 C227.51763,49.6260741 233.818505,43.2545185 241.820875,43.2545185 L241.820875,43.2545185 Z M322.385886,61.8037441 C322.385886,48.547771 313.967192,35.1280269 297.877118,35.1280269 C283.694545,35.1280269 272.583973,47.1445118 272.583973,62.4889966 L272.583973,62.6872458 C272.583973,78.2885926 283.881589,90.0525253 298.861468,90.0525253 C306.845737,90.0525253 312.955259,87.6080269 318.643286,82.1535892 C319.59402,81.3218047 320.117226,80.2176431 320.117226,79.0445253 C320.117226,76.7767273 318.226963,74.9321481 315.903138,74.9321481 C314.641239,74.9321481 313.747394,75.5518923 313.150923,76.0466532 C308.939421,79.9254411 304.460714,81.7320943 299.056269,81.7320943 C290.11437,81.7320943 283.40062,75.5355152 282.095623,66.211771 L317.975273,66.211771 C320.407704,66.2109091 322.385886,64.2327273 322.385886,61.8037441 L322.385886,61.8037441 Z M297.681455,43.2545185 C307.591327,43.2545185 312.043313,51.1517306 312.980256,58.8705185 L282.096485,58.8705185 C283.377347,49.6260741 289.678222,43.2545185 297.681455,43.2545185 L297.681455,43.2545185 Z M357.481158,35.1280269 C350.553643,35.1280269 344.989737,37.8233535 340.903219,43.1519461 L340.903219,40.4255892 C340.903219,37.7862896 338.83798,35.7184646 336.201266,35.7184646 C333.662815,35.7184646 331.596714,37.8293872 331.596714,40.4255892 L331.596714,84.6601481 C331.596714,87.296862 333.661953,89.362101 336.298667,89.362101 C338.923313,89.362101 340.903219,87.3399596 340.903219,84.6601481 L340.903219,58.8463838 C340.903219,49.9579259 346.828283,43.7501414 355.312485,43.7501414 C363.592404,43.7501414 368.536566,49.1726869 368.536566,58.2533603 L368.536566,84.6592862 C368.536566,87.296 370.603529,89.3612391 373.24369,89.3612391 C375.828687,89.3612391 377.853414,87.296 377.853414,84.6592862 L377.853414,56.3837845 C377.853414,43.4717306 369.857077,35.1280269 357.481158,35.1280269 L357.481158,35.1280269 Z M423.584323,17.6915825 C421.034667,17.6915825 418.880646,19.8887003 418.880646,22.490936 L418.880646,84.5601616 C418.880646,87.1632593 421.034667,89.3612391 423.584323,89.3612391 C426.232242,89.3612391 428.387125,87.2080808 428.387125,84.5601616 L428.387125,22.490936 C428.387125,19.8447407 426.232242,17.6915825 423.584323,17.6915825 L423.584323,17.6915825 Z M476.062599,17.0020202 C455.803259,17.0020202 439.932983,33.0455488 439.932983,53.5255488 L439.932983,53.722936 C439.932983,74.4356633 455.381764,90.0533872 475.866936,90.0533872 C496.128862,90.0533872 512,74.0098586 512,53.5264108 L512,53.3307475 C512,32.6197441 496.550357,17.0020202 476.062599,17.0020202 L476.062599,17.0020202 Z M502.19701,53.5255488 L502.19701,53.722936 C502.19701,69.3527273 490.961455,81.1390707 476.062599,81.1390707 C461.055138,81.1390707 449.737697,69.2673939 449.737697,53.5255488 L449.737697,53.3298855 C449.737697,37.7018182 460.970667,25.9171987 475.866936,25.9171987 C490.631327,25.9171987 502.19701,38.0440135 502.19701,53.5255488 L502.19701,53.5255488 Z" fill="#546A7E"></path>
	</g>
</svg>
